projects/@shared/assets/icons/open-graph.svg

<svg xmlns="http://www.w3.org/2000/svg" viewBox="0 0 100 100">
  <path d="M92.4 77.7a2.7 2.7 0 01-2.7-2.7c0-1.5 1.2-2.7 2.7-2.7 1.5 0 2.7 1.2 2.7 2.7 0 1.5-1.2 2.7-2.7 2.7zm-36.3 3a61.3 61.3 0 008.5-17.4c4.5.9 8.7 2.4 13.3 4.7L56.1 80.7zm-22-41.5c-.7 2.9-1.2 6.1-1.3 9.4H20.2V34.1a57 57 0 0013.9 5.1zM7.6 27.5a2.7 2.7 0 01-2.7-2.7c0-1.5 1.2-2.7 2.7-2.7 1.5 0 2.7 1.2 2.7 2.7 0 1.5-1.2 2.7-2.7 2.7zm35.6-7.8a58.4 58.4 0 00-8.4 16.8c-4.2-.9-8.2-2.4-12.5-4.5l20.9-12.3zm7.9 39.5v-3.3a6.2 6.2 0 004.7-4.5H64c-.1 3-.5 6-1.2 8.8a70 70 0 00-11.7-1zm0 2.9c4 0 7.6.3 10.9.8-2.8 9.3-8 16.6-10.9 20.2v-21zm-16.2 1.6a54 54 0 008.4 16.7L21.9 68.1c2.6-1.2 7.1-3.1 13-4.4zm9.2-12.3a6 6 0 004.6 4.5v3.4c-4.4.1-8.4.5-12 1.2-.7-2.8-1.1-5.9-1.2-9.1h8.6zm4.5-10.8V44a6 6 0 00-4.6 4.5h-8.7c.1-3.1.6-6.1 1.2-8.9 3.8.7 7.7 1 12.1 1zm0-21.9v19c-4.2-.1-7.8-.3-11.3-.9a55.9 55.9 0 0111.3-20v1.9zm15.9 17.6a60.5 60.5 0 00-8.4-17.1L78 32a63.1 63.1 0 01-13.5 4.3zM51.1 18.7v-1.9c2.9 3.5 8 10.7 10.9 20a71 71 0 01-10.9 1V18.7zM50 53.1a3.2 3.2 0 01-3.2-3.2c0-1.8 1.4-3.2 3.2-3.2 1.8 0 3.2 1.4 3.2 3.2 0 1.8-1.5 3.2-3.2 3.2zm-1.3 30.1c-3-3.4-8.4-10.5-11.3-20 3.4-.6 7.2-1.1 11.3-1.1v21.1zm7.1-34.7c-.6-2.3-2.4-4-4.7-4.5v-3.3c4.2-.1 8.1-.5 11.6-1.1.7 2.8 1.1 5.8 1.3 8.9h-8.2zm23.6 0h-13c-.1-3.3-.6-6.4-1.3-9.4a58.2 58.2 0 0014.3-4.7v14.1zm-59.2 2.9h12.6a42 42 0 001.3 9.6 68 68 0 00-13.9 4.7V51.4zm44.9 9.2c.7-2.9 1.1-6 1.2-9.2h13v14.4a45.8 45.8 0 00-14.2-5.2zm27.3 8.2c-1.7 0-3.3.7-4.4 1.7l-5-2.9V30.9L49.9 11.6 18.7 30l-5.2-3.1c.2-.7.4-1.4.4-2.1 0-3.4-2.8-6.2-6.2-6.2a6.2 6.2 0 00-6.2 6.2c0 3.4 2.8 6.2 6.2 6.2 1.7 0 3.1-.7 4.2-1.7 1.7 1 3.5 2 4.7 2.9v37.1l33.3 19.2L81.5 70c1.7 1 3.4 1.9 5 3-.2.7-.4 1.4-.4 2.1 0 3.4 2.8 6.2 6.2 6.2 3.4 0 6.2-2.8 6.2-6.2a6.1 6.1 0 00-6.1-6.3z"/>
</svg>

<?xml version="1.0" encoding="utf-8"?>
<!-- Generator: Adobe Illustrator 24.3.0, SVG Export Plug-In . SVG Version: 6.00 Build 0)  -->
<svg version="1.1" id="Laag_1" xmlns="http://www.w3.org/2000/svg" xmlns:xlink="http://www.w3.org/1999/xlink" x="0px" y="0px"
	 viewBox="0 0 100 100" style="enable-background:new 0 0 100 100;" xml:space="preserve">
<path d="M92.4,77.7c-1.5,0-2.7-1.2-2.7-2.7c0-1.5,1.2-2.7,2.7-2.7c1.5,0,2.7,1.2,2.7,2.7C95.1,76.5,93.9,77.7,92.4,77.7z M56.1,80.7
	c2.9-4.2,6.4-10.2,8.5-17.4c4.5,0.9,8.7,2.4,13.3,4.7L56.1,80.7z M34.1,39.2c-0.7,2.9-1.2,6.1-1.3,9.4c-4.1,0-8.1,0-12.6,0V34.1
	C24.7,36.5,29.4,38.1,34.1,39.2z M7.6,27.5c-1.5,0-2.7-1.2-2.7-2.7c0-1.5,1.2-2.7,2.7-2.7c1.5,0,2.7,1.2,2.7,2.7
	C10.3,26.3,9.1,27.5,7.6,27.5z M43.2,19.7c-2.9,4.1-6.3,9.8-8.4,16.8c-4.2-0.9-8.2-2.4-12.5-4.5L43.2,19.7L43.2,19.7z M51.1,59.2
	c0-1.1,0-2.2,0-3.3c2.3-0.5,4.1-2.2,4.7-4.5c2.8,0,5.5,0,8.2,0c-0.1,3-0.5,6-1.2,8.8C59.2,59.5,55.4,59.3,51.1,59.2L51.1,59.2z
	 M51.1,62.1c4,0,7.6,0.3,10.9,0.8c-2.8,9.3-8,16.6-10.9,20.2C51.1,76.4,51.1,69.5,51.1,62.1L51.1,62.1z M34.9,63.7
	c2.1,7,5.4,12.7,8.4,16.7L21.9,68.1C24.5,66.9,29,65,34.9,63.7L34.9,63.7z M44.1,51.4c0.5,2.2,2.3,4,4.6,4.5c0,1.1,0,2.3,0,3.4
	c-4.4,0.1-8.4,0.5-12,1.2c-0.7-2.8-1.1-5.9-1.2-9.1C38.2,51.4,41.1,51.4,44.1,51.4L44.1,51.4z M48.6,40.6c0,1.1,0,2.2,0,3.4
	c-2.3,0.5-4,2.2-4.6,4.5c-3,0-5.9,0-8.7,0c0.1-3.1,0.6-6.1,1.2-8.9C40.3,40.3,44.2,40.6,48.6,40.6L48.6,40.6z M48.6,18.7
	c0,6.3,0,12.7,0,19c-4.2-0.1-7.8-0.3-11.3-0.9c2.9-9.5,8.3-16.6,11.3-20L48.6,18.7L48.6,18.7z M64.5,36.3
	c-2.1-7.1-5.5-12.9-8.4-17.1L78,32C75.3,33.2,70.6,35.1,64.5,36.3L64.5,36.3z M51.1,18.7l0-1.9c2.9,3.5,8,10.7,10.9,20
	c-3.3,0.6-6.9,0.9-10.9,1C51.1,31.4,51.1,25,51.1,18.7z M50,53.1c-1.8,0-3.2-1.4-3.2-3.2c0-1.8,1.4-3.2,3.2-3.2
	c1.8,0,3.2,1.4,3.2,3.2C53.2,51.7,51.7,53.1,50,53.1z M48.7,83.2c-3-3.4-8.4-10.5-11.3-20c3.4-0.6,7.2-1.1,11.3-1.1
	C48.6,69.6,48.6,76.5,48.7,83.2z M55.8,48.5c-0.6-2.3-2.4-4-4.7-4.5c0-1.1,0-2.2,0-3.3c4.2-0.1,8.1-0.5,11.6-1.1
	c0.7,2.8,1.1,5.8,1.3,8.9C61.4,48.5,58.7,48.5,55.8,48.5L55.8,48.5z M79.4,48.5c-4.1,0-8.6,0-13,0c-0.1-3.3-0.6-6.4-1.3-9.4
	c6.7-1.4,11.9-3.4,14.3-4.7L79.4,48.5L79.4,48.5z M20.2,51.4c4.5,0,8.5,0,12.6,0c0.1,3.4,0.5,6.6,1.3,9.6c-6.4,1.4-11,3.4-13.9,4.7
	V51.4L20.2,51.4z M65.1,60.6c0.7-2.9,1.1-6,1.2-9.2c4.3,0,9,0,13,0v14.4C74.9,63.2,70,61.6,65.1,60.6L65.1,60.6z M92.4,68.8
	c-1.7,0-3.3,0.7-4.4,1.7c-1.7-1.1-3.3-2-5-2.9V30.9L49.9,11.6L18.7,30c-1.7-0.9-3.4-2-5.2-3.1c0.2-0.7,0.4-1.4,0.4-2.1
	c0-3.4-2.8-6.2-6.2-6.2c-3.4,0-6.2,2.8-6.2,6.2c0,3.4,2.8,6.2,6.2,6.2c1.7,0,3.1-0.7,4.2-1.7c1.7,1,3.5,2,4.7,2.9v37.1l33.3,19.2
	L81.5,70c1.7,1,3.4,1.9,5,3c-0.2,0.7-0.4,1.4-0.4,2.1c0,3.4,2.8,6.2,6.2,6.2c3.4,0,6.2-2.8,6.2-6.2C98.6,71.6,95.8,68.8,92.4,68.8
	L92.4,68.8z"/>
</svg>
